!!!!SEGMENT:pl-sa--481-a-viii-121--045_anonim-marsz.krn
!!!id: 18xx:416
!!!COM: Anonim
!!!OTL: Marsz
!!!PDT:
!!!SMS-siglum: PL-SA
!!!SMS-shelfmark: 481/A VIII 121
!!!NIFC-rismID: 1001070730
!!!URL-scan: http://bc.bdsandomierz.pl/dlibra/publication/1212/edition/1171/content
!!!ONB-nifc: Str. 32, s. 1-4
!!!SMS-variant:
!!!SMS-altvar:
**kern	**kern
*part1	*part1
*staff2	*staff1
*I"Piano	*
*I'P-no	*
*clefF4	*clefG2
*k[]	*k[]
*M2/4	*M2/4
!	!LO:TX:a:t=Marsz:rj
8ryy	8gg/
=1-	=1
2r	16ff#X/LL
.	16gg/
.	16aa/
.	16gg/JJ
.	16ffn/LL
.	16ee/
.	16ff/
!	!LO:TX:a:t=P:problem:przekreślony takt po tym takcie
.	16dd/JJ
=2	=2
8GL 8E 8C/	8cc/L
8G 8E 8C/	8cc/
8GJ 8E 8C/	8cc/
8r	8g/J
=3	=3
8EL 8C/	8.cc/L
8G/J	.
.	16dd/Jk
*rep	*
8EL 8C/	16ee/LL
.	16ff/
8G/J	16gg/
.	16ee/JJ
*Xrep	*
=4	=4
8GL 8D 8BB/	8dd/L
8G 8D 8BB/	8dd/
8GJ 8D 8BB/	8dd/
8r	8gg/J
=5	=5
2r	16ff#X/LL
.	16gg/
.	16aa/
.	16gg/JJ
.	16ffn/LL
.	16ee/
.	16ff/
.	16dd/JJ
=6	=6
*tremolo	*
8E 8C/L	8cc/L
8G/	16ee/L
.	16gg/JJ
8E 8C/	4ccc\
8G/J	.
*Xtremolo	*
=7	=7
8DL 8BB/	16dd/LL
.	16ee/
8G/J	16ff/
.	16dd/JJ
*rep	*
8DL 8BB/	16b/LL
.	16cc/
8G/J	16dd/
.	16b/JJ
*Xrep	*
=8	=8
8EL 8C/	8cc/L
8G/J	8cc/
8E 8C/	8cc/J
8r	8r
!!LO:LB:g=original
=9:|!|:	=9:|!|:
4A 4AA\	4aa 4a\
4E 4EE/	4ee 4e\
=10	=10
8cL 8C\	8cccL 8cc\
8cJ 8C\	8cccJ 8cc\
4A 4AA/	4aa 4a\
=11	=11
4F 4FF/	4ff 4f\
!LO:TX:a:t=P:problem:8\left	!LO:TX:a:t=P:problem:8\left
8D/L	8dd/L
!LO:TX:a:t=P:problem:8\left	!LO:TX:a:t=P:problem:8\left
8D/J	8dd/J
=12	=12
!LO:TX:a:t=P:problem:8\left	!LO:TX:a:t=P:problem:8\left
8BB/L	8b/L
!LO:TX:a:t=P:problem:8\left	!LO:TX:a:t=P:problem:8\left
8BB/J	8b/J
8D;>\	8dd;>\
8r	16r
.	16g/
=13	=13
8EL 8C/	8cc/L
8G/J	16cc/L
.	16dd/JJ
*rep	*
8EL 8C/	8ee/L
8G/J	16ee/L
.	16ff/JJ
*Xrep	*
=14	=14
*rep	*
8EL 8C/	16ff#X/LL
.	16gg/
8G/J	16aa/
.	16gg/JJ
*Xrep	*
*rep	*
8EL 8C/	16ffn/LL
.	16ee/
8G/J	16dd/
.	16cc/JJ
*Xrep	*
=15	=15
8DL 8BB/	16dd/LL
.	16ee/
8G/J	16ff/
.	16dd/JJ
*rep	*
8DL 8BB/	16b/LL
.	16cc/
8G/J	16dd/
.	16b/JJ
*Xrep	*
=16	=16
4E 4C/	16cc\LL
.	16ccc\
.	16bb\
.	16aa\JJ
4r	16gg/LL
.	16ff/
.	16ee/
.	16dd/JJ
=17	=17
8EL 8C/	8cc/L
8G/J	16cc/L
.	16dd/JJ
*rep	*
8EL 8C/	8ee/L
8G/J	16ee/L
.	16ff/JJ
*Xrep	*
=18	=18
*rep	*
8EL 8C/	16ff#X/LL
.	16gg/
8G/J	16aa/
.	16gg/JJ
*Xrep	*
*rep	*rep
8EL 8C/	16ffn/LL
.	16ee/
8G/J	16dd/
.	16cc/JJ
*Xrep	*
!!LO:LB:g=original
=19	=19
8DL 8BB/	16dd/LL
.	16ee/
8G/J	16ff/
.	16dd/JJ
*rep	*
8DL 8BB/	16b/LL
.	16cc/
8G/J	16dd/
.	16b/JJ
*Xrep	*
=20	=20
8EL 8C/	8cc/L
8G/J	8cc/J
4E 4C/	4cc/
=21:|!|:	=21:|!|:
8AL 8F/	16aa/LL
.	16gg/
8c/J	16ff/
.	16ee/JJ
*rep	*
8AL 8F/	16ff\LL
.	16aa\
8c/J	16ccc\
.	16bb-X\JJ
*Xrep	*
=22	=22
*rep	*
8AL 8F/	16aa/LL
.	16gg/
8c/J	16ff/
.	16ee/JJ
*Xrep	*
*rep	*rep
8AL 8F/	16ff\LL
.	16aa\
8c/J	16ccc\
.	16aa\JJ
*Xrep	*
=23	=23
8GL 8E/	16bb-X\LL
.	16gg\
8c/J	16ee\
.	16cc\JJ
*rep	*rep
8GL 8E/	16bb-\LL
.	16gg\
8c/J	16ee\
.	16cc\JJ
*Xrep	*Xrep
=24	=24
4A 4F/	16ff\LL
.	16gg\
.	16aa\
.	16bb-X\JJ
4r	16ccc\LL
.	16ddd\
.	16eee\
.	16fff\JJ
=25	=25
!	!LO:TX:a:t=P:problem:początek znaku repetycji
8FL 8D\	16gg/LL
.	16ff/
8c\J	16ee/
.	16ff/JJ
4ryy	16ff\LL
.	16aa\
.	16ccc\
.	16aa\JJ
!	!LO:TX:a:t=P:problem:koniec znaku repetycji
=26	=26
!	!LO:TX:a:t=P:problem:rozpisana repetycja
8FL 8D\	16gg/LL
.	16ff/
8c\J	16ee/
.	16ff/JJ
4ryy	16ff\LL
.	16aa\
.	16ccc\
.	16aa\JJ
=27	=27
8GL 8E\	16bb-X\LL
.	16gg\
8c\J	16ee\
.	16cc\JJ
*	*rep
4ryy	16bb-\LL
.	16gg\
.	16ee\
.	16cc\JJ
*	*Xrep
=	=
8AL 8F\	8ff\L
8A 8F\	8ff\
8AJ 8F;>\	8ff;>\J
!!LO:LB:g=original
=28:|!|:	=28:|!|:
!	!LO:N:vis=8
8r	16gg/LL
!	!LO:N:vis=8
.	16ee/JJ
=29	=29
*tremolo	*
8G 8E 8C\L	8cc/L
8G 8E 8C\	8cc/J
8G 8E 8C\J	8cc\L
*Xtremolo	*
8r	16aa\L
.	16ff\JJ
=30	=30
*tremolo	*
8G 8D 8BB\L	8dd/L
8G 8D 8BB\	8dd/J
8G 8D 8BB\J	8dd/L
*Xtremolo	*
8r	16ff/L
.	16dd/JJ
=31	=31
*tremolo	*
8G 8D 8BB\L	8b/L
8G 8D 8BB\	8b/J
8G 8D 8BB\J	8b\L
*Xtremolo	*
8r	16gg\L
.	16ee\JJ
=32	=32
8GL 8E 8C\	8cc\L
8G 8E 8C\	8cc\
8GJ 8E 8C;>\	8cc;>\J
=:|!	=:|!
*-	*-
!!!system-decoration: {(s1,s2)}
!!!RDF**kern: > = above
!!!RDF**kern: < = below
!!!ENC: Marcin Jachim
!!!END: 2020-06-15
!!!EED: Mateusz Mrugas
!!!EST: 2020-11-23
